X: 10671
M: C|
L: 1/8
K: A
|:\
vA2E>A (c>B)A>G | A>c (3efg a2e>g | (g>f)d>f (f>e)c>e | (.a>.g)(a>f) (3efd (3cdB |
|: u(A/B/c/d/) |\
(e>^d)e>c  (a>g)a>f | (g>a)g>f (e>f)e>c | (d>c)d>B (g>f)d>c | (d<b)uB2 uB4 |


